packages/core/src/svgs/kncl.svg

<svg width="24" height="24" viewBox="0 0 24 24" fill="none" xmlns="http://www.w3.org/2000/svg">
<g clip-path="url(#clip0_31_12819)">
<path d="M0 0H24V24H0V0Z" fill="#31CB9E"/>
<path d="M12.8271 3.9213L16.7571 7.00701C16.9414 7.14844 16.92 7.42272 16.7271 7.53844L10.8985 10.9799L12.33 4.10987C12.3402 4.05761 12.3635 4.00883 12.3978 3.96813C12.4321 3.92742 12.4763 3.89615 12.5261 3.87727C12.5758 3.85839 12.6296 3.85252 12.6823 3.86023C12.735 3.86793 12.7848 3.88895 12.8271 3.9213ZM17.1042 15.4842L11.1814 11.9999L17.1042 8.51558C17.152 8.48851 17.206 8.47448 17.2609 8.4749C17.3158 8.47531 17.3696 8.49016 17.4169 8.51796C17.4643 8.54575 17.5035 8.5855 17.5306 8.63323C17.5577 8.68096 17.5718 8.73498 17.5714 8.78987V15.2142C17.5714 15.4542 17.3057 15.6084 17.1 15.4884L17.1042 15.4842ZM12.8271 20.0784L16.77 16.9884C16.8106 16.9557 16.8428 16.9136 16.8638 16.8659C16.8848 16.8181 16.894 16.7659 16.8906 16.7138C16.8873 16.6617 16.8715 16.6112 16.8445 16.5665C16.8175 16.5218 16.7802 16.4843 16.7357 16.457L10.8942 13.0199L12.3342 19.8899C12.3771 20.1213 12.6428 20.2199 12.8271 20.0784ZM11.2157 4.59415L9.66424 11.9956L11.2157 19.4099C11.2714 19.697 10.9457 19.907 10.7185 19.727L6.74995 16.6199C6.64835 16.5389 6.56657 16.4359 6.51086 16.3185C6.45516 16.2011 6.427 16.0726 6.42853 15.9427V8.05701C6.42853 7.79987 6.54853 7.54272 6.74995 7.38415L10.7185 4.27272C10.95 4.08415 11.2757 4.29844 11.2157 4.58987V4.59415Z" fill="white"/>
</g>
<defs>
<clipPath id="clip0_31_12819">
<rect width="24" height="24" fill="white"/>
</clipPath>
</defs>
</svg>

<svg xmlns="http://www.w3.org/2000/svg" width="24" height="24" fill="none" viewBox="0 0 24 24"><g clip-path="url(#a)"><path fill="#31CB9E" d="M0 0h24v24H0z"/><path fill="#fff" d="m12.827 3.921 3.93 3.086a.32.32 0 0 1-.03.531L10.9 10.98l1.431-6.87a.313.313 0 0 1 .497-.189m4.277 11.563L11.181 12l5.923-3.484a.313.313 0 0 1 .467.274v6.424c0 .24-.265.394-.471.274zm-4.277 4.594 3.943-3.09a.326.326 0 0 0-.034-.531l-5.842-3.437 1.44 6.87c.043.231.309.33.493.188M11.216 4.594l-1.552 7.402 1.552 7.414c.055.287-.27.497-.497.317L6.75 16.62a.85.85 0 0 1-.321-.677V8.057c0-.257.12-.514.32-.673l3.97-3.111c.231-.189.557.025.497.317z"/></g><defs><clipPath id="a"><path fill="#fff" d="M0 0h24v24H0z"/></clipPath></defs></svg>
